;FLAVOR:Marlin
;TIME:1487
;Filament used: 1.32517m
;Layer height: 0.2
;Generated with Cura_SteamEngine 3.6.0
M140 S70
M105
M190 S70
M104 S220
M105
M109 S220
M82 ;absolute extrusion mode
G28 ;Home
G29;
G1 Z15.0 F6000 ;Move the platform down 15mm
;Prime the extruder
G92 E0
G1 F200 E3
G92 E0
G92 E0
G1 F1500 E-6.5
;LAYER_COUNT:65
;LAYER:0
M107
G0 F3600 X79.485 Y81.985 Z0.3
;TYPE:SKIRT
G1 F1500 E0
G1 F1800 X80.071 Y81.455 E0.03942
G1 X80.707 Y80.988 E0.07878
G1 X81.387 Y80.587 E0.11817
G1 X82.105 Y80.257 E0.15759
G1 X82.852 Y80.002 E0.19697
G1 X83.621 Y79.823 E0.23636
G1 X84.405 Y79.723 E0.27579
G1 X85 Y79.7 E0.3055
G1 X86.979 Y79.7 E0.40423
G1 X87.768 Y79.74 E0.44365
G1 X88.548 Y79.859 E0.48301
G1 X88.964 Y79.967 E0.50446
G1 X89.735 Y79.801 E0.5438
G1 X90.52 Y79.714 E0.58321
G1 X90.987 Y79.7 E0.60651
G1 X93 Y79.7 E0.70694
G1 X93.789 Y79.74 E0.74636
G1 X94.569 Y79.859 E0.78572
G1 X95.334 Y80.057 E0.82515
G1 X96.074 Y80.331 E0.86451
G1 X96.783 Y80.679 E0.90392
G1 X97.001 Y80.815 E0.91674
G1 X97.387 Y80.587 E0.9391
G1 X98.105 Y80.257 E0.97853
G1 X98.852 Y80.002 E1.01791
G1 X99.621 Y79.823 E1.0573
G1 X100.405 Y79.723 E1.09673
G1 X101 Y79.7 E1.12643
G1 X102.979 Y79.7 E1.22517
G1 X103.768 Y79.74 E1.26458
G1 X104.548 Y79.859 E1.30395
G1 X104.964 Y79.967 E1.32539
G1 X105.735 Y79.801 E1.36474
G1 X106.52 Y79.714 E1.40414
G1 X106.987 Y79.7 E1.42745
G1 X109 Y79.7 E1.52788
G1 X109.789 Y79.74 E1.56729
G1 X110.569 Y79.859 E1.60666
G1 X111.334 Y80.057 E1.64608
G1 X112.074 Y80.331 E1.68545
G1 X112.783 Y80.679 E1.72485
G1 X113.454 Y81.097 E1.76429
G1 X114.078 Y81.58 E1.80366
G1 X114.515 Y81.985 E1.83338
G1 X114.665 Y82.135 E1.84397
G1 X115.195 Y82.721 E1.88339
G1 X115.662 Y83.357 E1.92275
G1 X116.063 Y84.037 E1.96214
G1 X116.393 Y84.755 E2.00156
G1 X116.648 Y85.502 E2.04094
G1 X116.827 Y86.271 E2.08033
G1 X116.927 Y87.055 E2.11976
G1 X116.95 Y87.65 E2.14947
G1 X116.951 Y122.349 E3.88061
G1 X116.911 Y123.137 E3.91997
G1 X116.792 Y123.918 E3.95939
G1 X116.594 Y124.683 E3.99881
G1 X116.32 Y125.423 E4.03818
G1 X115.972 Y126.132 E4.07758
G1 X115.555 Y126.803 E4.117
G1 X115.071 Y127.427 E4.1564
G1 X114.666 Y127.864 E4.18612
G1 X114.515 Y128.015 E4.19677
G1 X113.929 Y128.545 E4.23619
G1 X113.293 Y129.012 E4.27556
G1 X112.613 Y129.413 E4.31494
G1 X111.895 Y129.743 E4.35437
G1 X111.148 Y129.998 E4.39375
G1 X110.379 Y130.177 E4.43314
G1 X109.595 Y130.277 E4.47257
G1 X109 Y130.3 E4.50228
G1 X107.01 Y130.3 E4.60156
G1 X106.221 Y130.26 E4.64097
G1 X105.441 Y130.141 E4.68034
G1 X105.026 Y130.034 E4.70172
G1 X104.261 Y130.198 E4.74075
G1 X103.476 Y130.286 E4.78016
G1 X103.004 Y130.3 E4.80372
G1 X101 Y130.3 E4.9037
G1 X100.211 Y130.26 E4.94311
G1 X99.431 Y130.141 E4.98248
G1 X98.666 Y129.943 E5.0219
G1 X97.926 Y129.669 E5.06127
G1 X97.217 Y129.321 E5.10067
G1 X96.999 Y129.185 E5.11349
G1 X96.613 Y129.413 E5.13586
G1 X95.895 Y129.743 E5.17528
G1 X95.148 Y129.998 E5.21466
G1 X94.379 Y130.177 E5.25405
G1 X93.595 Y130.277 E5.29348
G1 X93 Y130.3 E5.32319
G1 X91.01 Y130.3 E5.42247
G1 X90.221 Y130.26 E5.46188
G1 X89.441 Y130.141 E5.50125
G1 X89.026 Y130.034 E5.52263
G1 X88.261 Y130.198 E5.56166
G1 X87.476 Y130.286 E5.60107
G1 X87.004 Y130.3 E5.62463
G1 X85 Y130.3 E5.72461
G1 X84.211 Y130.26 E5.76403
G1 X83.431 Y130.141 E5.80339
G1 X82.666 Y129.943 E5.84281
G1 X81.926 Y129.669 E5.88218
G1 X81.217 Y129.321 E5.92159
G1 X80.546 Y128.903 E5.96103
G1 X79.922 Y128.42 E6.00039
G1 X79.485 Y128.015 E6.03012
G1 X79.335 Y127.865 E6.0407
G1 X78.805 Y127.279 E6.08012
G1 X78.338 Y126.643 E6.11949
G1 X77.937 Y125.963 E6.15887
G1 X77.607 Y125.245 E6.1983
G1 X77.352 Y124.498 E6.23768
G1 X77.173 Y123.729 E6.27707
G1 X77.073 Y122.945 E6.3165
G1 X77.05 Y122.35 E6.3462
G1 X77.049 Y87.651 E8.07734
G1 X77.089 Y86.863 E8.11671
G1 X77.208 Y86.082 E8.15612
G1 X77.406 Y85.317 E8.19555
G1 X77.68 Y84.577 E8.23491
G1 X78.028 Y83.868 E8.27432
G1 X78.445 Y83.197 E8.31373
G1 X78.929 Y82.573 E8.35313
G1 X79.334 Y82.136 E8.38286
G1 X79.485 Y81.985 E8.39351
G0 F3600 X79.767 Y82.267
G1 F1800 X80.339 Y81.753 E8.43188
G1 X80.961 Y81.3 E8.47027
G1 X81.626 Y80.914 E8.50863
G1 X82.328 Y80.599 E8.54701
G1 X83.059 Y80.359 E8.5854
G1 X83.81 Y80.196 E8.62374
G1 X84.575 Y80.112 E8.66213
G1 X85 Y80.1 E8.68335
G1 X86.979 Y80.1 E8.78208
G1 X87.747 Y80.14 E8.82045
G1 X88.507 Y80.259 E8.85882
G1 X88.983 Y80.386 E8.8834
G1 X89.455 Y80.26 E8.90778
G1 X90.215 Y80.14 E8.94616
G1 X90.987 Y80.1 E8.98473
G1 X93 Y80.1 E9.08516
G1 X93.768 Y80.14 E9.12353
G1 X94.528 Y80.259 E9.1619
G1 X95.271 Y80.457 E9.20027
G1 X95.99 Y80.731 E9.23865
G1 X96.676 Y81.078 E9.27701
G1 X96.993 Y81.282 E9.29581
G1 X97.626 Y80.914 E9.33234
G1 X98.328 Y80.599 E9.37073
G1 X99.059 Y80.359 E9.40912
G1 X99.81 Y80.196 E9.44746
G1 X100.575 Y80.112 E9.48585
G1 X101 Y80.1 E9.50706
G1 X102.979 Y80.1 E9.6058
G1 X103.747 Y80.14 E9.64416
G1 X104.507 Y80.259 E9.68254
G1 X104.983 Y80.386 E9.70712
G1 X105.455 Y80.26 E9.73149
G1 X106.215 Y80.14 E9.76988
G1 X106.987 Y80.1 E9.80845
G1 X109 Y80.1 E9.90888
G1 X109.768 Y80.14 E9.94724
G1 X110.528 Y80.259 E9.98562
G1 X111.271 Y80.457 E10.02398
G1 X111.99 Y80.731 E10.06237
G1 X112.676 Y81.078 E10.10073
G1 X113.323 Y81.494 E10.1391
G1 X113.923 Y81.975 E10.17747
G1 X114.233 Y82.267 E10.19871
G1 X114.383 Y82.417 E10.2093
G1 X114.897 Y82.989 E10.24766
G1 X115.35 Y83.611 E10.28605
G1 X115.736 Y84.276 E10.32441
G1 X116.051 Y84.978 E10.3628
G1 X116.291 Y85.709 E10.40119
G1 X116.454 Y86.46 E10.43952
G1 X116.538 Y87.225 E10.47792
G1 X116.55 Y87.65 E10.49913
G1 X116.551 Y122.349 E12.23027
G1 X116.511 Y123.117 E12.26864
G1 X116.392 Y123.877 E12.30702
G1 X116.194 Y124.62 E12.34538
G1 X115.92 Y125.339 E12.38377
G1 X115.573 Y126.025 E12.42212
G1 X115.157 Y126.672 E12.4605
G1 X114.676 Y127.272 E12.49886
G1 X114.384 Y127.582 E12.52011
G1 X114.233 Y127.733 E12.53076
G1 X113.661 Y128.247 E12.56913
G1 X113.039 Y128.7 E12.60752
G1 X112.374 Y129.086 E12.64588
G1 X111.672 Y129.401 E12.68427
G1 X110.941 Y129.641 E12.72265
G1 X110.19 Y129.804 E12.76099
G1 X109.425 Y129.888 E12.79939
G1 X109 Y129.9 E12.8206
G1 X107.01 Y129.9 E12.91988
G1 X106.242 Y129.86 E12.95825
G1 X105.482 Y129.741 E12.99663
G1 X105.006 Y129.614 E13.02121
G1 X104.54 Y129.739 E13.04528
G1 X103.78 Y129.859 E13.08366
G1 X103.004 Y129.9 E13.12243
G1 X101 Y129.9 E13.22241
G1 X100.232 Y129.86 E13.26078
G1 X99.472 Y129.741 E13.29916
G1 X98.729 Y129.543 E13.33752
G1 X98.01 Y129.269 E13.37591
G1 X97.324 Y128.922 E13.41426
G1 X97.007 Y128.718 E13.43307
G1 X96.374 Y129.086 E13.4696
G1 X95.672 Y129.401 E13.50798
G1 X94.941 Y129.641 E13.54637
G1 X94.19 Y129.804 E13.58471
G1 X93.425 Y129.888 E13.6231
G1 X93 Y129.9 E13.64432
G1 X91.01 Y129.9 E13.7436
G1 X90.242 Y129.86 E13.78197
G1 X89.482 Y129.741 E13.82034
G1 X89.006 Y129.614 E13.84492
G1 X88.54 Y129.739 E13.86899
G1 X87.78 Y129.859 E13.90738
G1 X87.004 Y129.9 E13.94615
G1 X85 Y129.9 E14.04613
G1 X84.232 Y129.86 E14.0845
G1 X83.472 Y129.741 E14.12287
G1 X82.729 Y129.543 E14.16124
G1 X82.01 Y129.269 E14.19962
G1 X81.324 Y128.922 E14.23798
G1 X80.677 Y128.506 E14.27635
G1 X80.077 Y128.025 E14.31472
G1 X79.767 Y127.733 E14.33597
G1 X79.617 Y127.583 E14.34655
G1 X79.103 Y127.011 E14.38492
G1 X78.65 Y126.389 E14.4233
G1 X78.264 Y125.724 E14.46167
G1 X77.949 Y125.022 E14.50005
G1 X77.709 Y124.291 E14.53844
G1 X77.546 Y123.54 E14.57678
G1 X77.462 Y122.775 E14.61517
G1 X77.45 Y122.35 E14.63639
G1 X77.449 Y87.651 E16.36753
G1 X77.489 Y86.883 E16.40589
G1 X77.608 Y86.123 E16.44427
G1 X77.806 Y85.38 E16.48263
G1 X78.08 Y84.661 E16.52102
G1 X78.427 Y83.975 E16.55938
G1 X78.843 Y83.328 E16.59775
G1 X79.324 Y82.728 E16.63612
G1 X79.616 Y82.418 E16.65736
G1 X79.767 Y82.267 E16.66802
G0 F3600 X80.05 Y82.55
G1 F1800 X80.607 Y82.05 E16.70536
G1 X81.213 Y81.613 E16.74263
G1 X81.863 Y81.242 E16.77997
G1 X82.549 Y80.943 E16.81731
G1 X83.263 Y80.719 E16.85464
G1 X83.996 Y80.572 E16.89194
G1 X85 Y80.5 E16.94216
G1 X86.979 Y80.5 E17.04089
G1 X87.726 Y80.54 E17.07821
G1 X88.464 Y80.659 E17.11551
G1 X88.985 Y80.802 E17.14246
G1 X89.209 Y80.73 E17.1542
G1 X89.942 Y80.578 E17.19155
G1 X90.987 Y80.5 E17.24383
G1 X93 Y80.5 E17.34425
G1 X93.747 Y80.54 E17.38158
G1 X94.485 Y80.659 E17.41887
G1 X95.207 Y80.857 E17.45622
G1 X95.903 Y81.13 E17.49352
G1 X96.566 Y81.477 E17.53085
G1 X97 Y81.766 E17.55687
G1 X97.213 Y81.613 E17.56995
G1 X97.863 Y81.242 E17.60729
G1 X98.549 Y80.943 E17.64463
G1 X99.263 Y80.719 E17.68196
G1 X99.996 Y80.572 E17.71926
G1 X101 Y80.5 E17.76947
G1 X102.979 Y80.5 E17.86821
G1 X103.726 Y80.54 E17.90553
G1 X104.464 Y80.659 E17.94282
G1 X104.985 Y80.802 E17.96978
G1 X105.209 Y80.73 E17.98152
G1 X105.942 Y80.578 E18.01886
G1 X106.987 Y80.5 E18.07114
G1 X109 Y80.5 E18.17157
G1 X109.747 Y80.54 E18.20889
G1 X110.485 Y80.659 E18.24619
G1 X111.207 Y80.857 E18.28354
G1 X111.903 Y81.13 E18.32084
G1 X112.566 Y81.477 E18.35817
G1 X113.189 Y81.892 E18.39552
G1 X113.95 Y82.55 E18.44571
G1 X114.1 Y82.7 E18.45629
G1 X114.6 Y83.257 E18.49364
G1 X115.037 Y83.863 E18.53091
G1 X115.408 Y84.513 E18.56825
G1 X115.707 Y85.199 E18.60558
G1 X115.931 Y85.913 E18.64292
G1 X116.078 Y86.646 E18.68021
G1 X116.15 Y87.65 E18.73043
G1 X116.151 Y122.349 E20.46157
G1 X116.111 Y123.096 E20.49889
G1 X115.992 Y123.834 E20.53619
G1 X115.794 Y124.556 E20.57354
G1 X115.521 Y125.252 E20.61084
G1 X115.174 Y125.915 E20.64817
G1 X114.76 Y126.538 E20.68549
G1 X114.101 Y127.299 E20.73571
G1 X113.95 Y127.45 E20.74637
G1 X113.393 Y127.95 E20.78371
G1 X112.787 Y128.387 E20.82099
G1 X112.137 Y128.758 E20.85832
G1 X111.451 Y129.057 E20.89566
G1 X110.737 Y129.281 E20.93299
G1 X110.004 Y129.428 E20.97029
G1 X109 Y129.5 E21.02051
G1 X107.01 Y129.5 E21.11979
G1 X106.263 Y129.46 E21.15711
G1 X105.525 Y129.341 E21.19441
G1 X105.006 Y129.199 E21.22125
G1 X104.786 Y129.269 E21.23277
G1 X104.053 Y129.421 E21.27012
G1 X103.004 Y129.5 E21.3226
G1 X101 Y129.5 E21.42258
G1 X100.253 Y129.46 E21.4599
G1 X99.515 Y129.341 E21.4972
G1 X98.793 Y129.143 E21.53455
G1 X98.097 Y128.87 E21.57184
G1 X97.434 Y128.523 E21.60918
G1 X97 Y128.234 E21.63519
G1 X96.787 Y128.387 E21.64828
G1 X96.137 Y128.758 E21.68562
G1 X95.451 Y129.057 E21.72295
G1 X94.737 Y129.281 E21.76028
G1 X94.004 Y129.428 E21.79758
G1 X93 Y129.5 E21.8478
G1 X91.01 Y129.5 E21.94708
G1 X90.263 Y129.46 E21.9844
G1 X89.525 Y129.341 E22.0217
G1 X89.006 Y129.199 E22.04854
G1 X88.786 Y129.269 E22.06006
G1 X88.053 Y129.421 E22.09741
G1 X87.004 Y129.5 E22.14989
G1 X85 Y129.5 E22.24987
G1 X84.253 Y129.46 E22.28719
G1 X83.515 Y129.341 E22.32449
G1 X82.793 Y129.143 E22.36184
G1 X82.097 Y128.87 E22.39914
G1 X81.434 Y128.523 E22.43647
G1 X80.811 Y128.108 E22.47382
G1 X80.05 Y127.45 E22.52401
G1 X79.9 Y127.3 E22.53459
G1 X79.4 Y126.743 E22.57193
G1 X78.963 Y126.137 E22.60921
G1 X78.592 Y125.487 E22.64655
G1 X78.293 Y124.801 E22.68388
G1 X78.069 Y124.087 E22.72121
G1 X77.922 Y123.354 E22.75851
G1 X77.85 Y122.35 E22.80873
G1 X77.849 Y87.651 E24.53987
G1 X77.889 Y86.904 E24.57719
G1 X78.008 Y86.166 E24.61449
G1 X78.206 Y85.444 E24.65184
G1 X78.479 Y84.748 E24.68914
G1 X78.826 Y84.085 E24.72647
G1 X79.24 Y83.462 E24.76379
G1 X79.899 Y82.701 E24.81401
G1 X80.05 Y82.55 E24.82467
G0 F3600 X80.333 Y82.833
G1 F1800 X80.874 Y82.349 E24.86088
G1 X81.465 Y81.926 E24.89714
G1 X82.099 Y81.572 E24.93337
G1 X82.768 Y81.289 E24.96961
G1 X83.464 Y81.081 E25.00585
G1 X84.179 Y80.951 E25.0421
G1 X85 Y80.9 E25.08314
G1 X86.979 Y80.9 E25.18188
G1 X87.704 Y80.94 E25.2181
G1 X88.421 Y81.059 E25.25436
G1 X88.974 Y81.216 E25.28304
G1 X88.997 Y81.207 E25.28427
G1 X89.701 Y81.027 E25.32053
G1 X90.42 Y80.924 E25.35676
G1 X90.987 Y80.9 E25.38508
G1 X93 Y80.9 E25.48551
G1 X93.725 Y80.94 E25.52173
G1 X94.442 Y81.059 E25.55799
G1 X95.141 Y81.257 E25.59424
G1 X95.814 Y81.53 E25.63047
G1 X96.453 Y81.875 E25.6667
G1 X97.003 Y82.257 E25.70011
G1 X97.465 Y81.926 E25.72846
G1 X98.099 Y81.572 E25.76469
G1 X98.768 Y81.289 E25.80093
G1 X99.464 Y81.081 E25.83717
G1 X100.179 Y80.951 E25.87343
G1 X101 Y80.9 E25.91447
G1 X102.979 Y80.9 E26.0132
G1 X103.704 Y80.94 E26.04942
G1 X104.421 Y81.059 E26.08568
G1 X104.974 Y81.216 E26.11436
G1 X104.997 Y81.207 E26.1156
G1 X105.701 Y81.027 E26.15185
G1 X106.42 Y80.924 E26.18809
G1 X106.987 Y80.9 E26.2164
G1 X109 Y80.9 E26.31683
G1 X109.725 Y80.94 E26.35305
G1 X110.442 Y81.059 E26.38931
G1 X111.141 Y81.257 E26.42556
G1 X111.814 Y81.53 E26.46179
G1 X112.453 Y81.875 E26.49802
G1 X113.05 Y82.289 E26.53427
G1 X113.667 Y82.833 E26.57531
G1 X113.817 Y82.983 E26.58589
G1 X114.301 Y83.524 E26.62211
G1 X114.724 Y84.115 E26.65836
G1 X115.078 Y84.749 E26.69459
G1 X115.361 Y85.418 E26.73083
G1 X115.569 Y86.114 E26.76707
G1 X115.699 Y86.829 E26.80333
G1 X115.75 Y87.65 E26.84437
G1 X115.751 Y122.349 E28.57551
G1 X115.711 Y123.074 E28.61173
G1 X115.592 Y123.791 E28.64799
G1 X115.394 Y124.49 E28.68424
G1 X115.121 Y125.163 E28.72047
G1 X114.776 Y125.802 E28.7567
G1 X114.362 Y126.399 E28.79295
G1 X113.818 Y127.016 E28.83399
G1 X113.667 Y127.167 E28.84464
G1 X113.126 Y127.651 E28.88086
G1 X112.535 Y128.074 E28.91711
G1 X111.901 Y128.428 E28.95334
G1 X111.232 Y128.711 E28.98958
G1 X110.536 Y128.919 E29.02582
G1 X109.821 Y129.049 E29.06208
G1 X109 Y129.1 E29.10312
G1 X107.01 Y129.1 E29.2024
G1 X106.285 Y129.06 E29.23862
G1 X105.568 Y128.941 E29.27489
G1 X105.016 Y128.785 E29.3035
G1 X104.997 Y128.792 E29.30451
G1 X104.294 Y128.973 E29.34073
G1 X103.575 Y129.075 E29.37696
G1 X103.004 Y129.1 E29.40547
G1 X101 Y129.1 E29.50545
G1 X100.275 Y129.06 E29.54168
G1 X99.558 Y128.941 E29.57794
G1 X98.859 Y128.743 E29.61419
G1 X98.186 Y128.47 E29.65042
G1 X97.547 Y128.125 E29.68665
G1 X96.997 Y127.743 E29.72006
G1 X96.535 Y128.074 E29.74841
G1 X95.901 Y128.428 E29.78464
G1 X95.232 Y128.711 E29.82088
G1 X94.536 Y128.919 E29.85712
G1 X93.821 Y129.049 E29.89338
G1 X93 Y129.1 E29.93442
G1 X91.01 Y129.1 E30.0337
G1 X90.285 Y129.06 E30.06992
G1 X89.568 Y128.941 E30.10618
G1 X89.016 Y128.785 E30.1348
G1 X88.997 Y128.792 E30.13581
G1 X88.294 Y128.973 E30.17203
G1 X87.575 Y129.075 E30.20826
G1 X87.004 Y129.1 E30.23677
G1 X85 Y129.1 E30.33675
G1 X84.275 Y129.06 E30.37298
G1 X83.558 Y128.941 E30.40924
G1 X82.859 Y128.743 E30.44548
G1 X82.186 Y128.47 E30.48172
G1 X81.547 Y128.125 E30.51795
G1 X80.95 Y127.711 E30.55419
G1 X80.333 Y127.167 E30.59523
G1 X80.183 Y127.017 E30.60581
G1 X79.699 Y126.476 E30.64203
G1 X79.276 Y125.885 E30.67829
G1 X78.922 Y125.251 E30.71452
G1 X78.639 Y124.582 E30.75076
G1 X78.431 Y123.886 E30.787
G1 X78.301 Y123.171 E30.82325
G1 X78.25 Y122.35 E30.86429
G1 X78.249 Y87.651 E32.59543
G1 X78.289 Y86.926 E32.63166
G1 X78.408 Y86.209 E32.66792
G1 X78.606 Y85.51 E32.70416
G1 X78.879 Y84.837 E32.7404
G1 X79.224 Y84.198 E32.77663
G1 X79.638 Y83.601 E32.81287
G1 X80.182 Y82.984 E32.85391
G1 X80.333 Y82.833 E32.86456
G0 F3600 X80.616 Y83.116
G1 F1800 X81.141 Y82.647 E32.89969
G1 X81.716 Y82.241 E32.9348
G1 X82.334 Y81.903 E32.96994
G1 X82.985 Y81.636 E33.00505
G1 X83.663 Y81.446 E33.04018
G1 X84.358 Y81.333 E33.07531
G1 X85 Y81.3 E33.10738
G1 X86.979 Y81.3 E33.20611
G1 X87.682 Y81.34 E33.24124
G1 X88.376 Y81.459 E33.27637
G1 X88.989 Y81.639 E33.30824
G1 X89.494 Y81.483 E33.33461
G1 X90.185 Y81.352 E33.3697
G1 X90.987 Y81.3 E33.4098
G1 X93 Y81.3 E33.51023
G1 X93.703 Y81.34 E33.54536
G1 X94.397 Y81.459 E33.58048
G1 X95.072 Y81.657 E33.61558
G1 X95.721 Y81.929 E33.65069
G1 X96.335 Y82.274 E33.68582
G1 X96.906 Y82.685 E33.72092
G1 X97.002 Y82.771 E33.72735
G1 X97.141 Y82.647 E33.73665
G1 X97.716 Y82.241 E33.77176
G1 X98.334 Y81.903 E33.80691
G1 X98.985 Y81.636 E33.84201
G1 X99.663 Y81.446 E33.87714
G1 X100.358 Y81.333 E33.91227
G1 X101 Y81.3 E33.94434
G1 X102.979 Y81.3 E34.04307
G1 X103.682 Y81.34 E34.0782
G1 X104.376 Y81.459 E34.11333
G1 X104.989 Y81.639 E34.1452
G1 X105.494 Y81.483 E34.17157
G1 X106.185 Y81.352 E34.20666
G1 X106.987 Y81.3 E34.24676
G1 X109 Y81.3 E34.34719
G1 X109.703 Y81.34 E34.38232
G1 X110.397 Y81.459 E34.41745
G1 X111.072 Y81.657 E34.45254
G1 X111.721 Y81.929 E34.48765
G1 X112.335 Y82.274 E34.52279
G1 X112.906 Y82.685 E34.55788
G1 X113.384 Y83.116 E34.59
G1 X113.534 Y83.266 E34.60058
G1 X114.003 Y83.791 E34.6357
G1 X114.409 Y84.366 E34.67082
